X: 13149
T: First Month Of Summer, The
R: reel
M: 4/4
K: Dmajor
|dB~B2 BAFA|~D2FA defe|dBBF AAFA|BBed egfe|
dB~B2 BAFB|~A2FA defg|afge fdec|dBAB e2fg|
af~f2 afbf|af~f2 afef|af~f2 ~a3f|egfe dBA2|
af~f2 afbf|af~f2 afea|fa~a2 fb~b2|bafe fgfe|
affb afbf|fefb afef|af~f2 ~a3f|egfe dBA2|
af~f2 afbf|af~f2 afea|fa~a2 f[~b3 ~g3]|[b g]afe fgfe|

